X: 1
T: Soldier's Joy
S: Shetland version, via Tom Anderson
R: reel
Z: 2014 John Chambers <jc:trillian.mit.edu>
S: printed copy of unknown origin
M: C|
L: 1/8
K: D
dB |\
"D"AGFE DEFG | "D"A2d2 d2dB | "D"AGFE DEFD | "Em"G2E2 "A7"E2dB | "D"AGFE DEFG |
"D"A2d2 d3e | "D"fdfa "A7"gece | "D"d2d2 d2 :: A2 | "D"defg a2f2 | "A7"edef g3e | "D"defg a2f2 |
"E7"edcB "A7"A3A | "D"defg a2f2 | "A7"edef g3g | "D"fdfa "A7"gece | "D"d2d2 d2 :|
